X: 1
T: Corporal AB
M: 6/8
L: 1/8
R: jig
K: Gmin
|:GFE|G3 d3|cdc AGF|(G6|G3) GFD|
G3 d3|gfg fdc|(d6|d3) dcA|
dcd g3|aga f2d|cAc cd=e|f=ed c2A|
d3 dcB|AcB AGF|G2d cAF|(G6|G3):|
z2A|B2d dBB|fBg fdB|bBg fdB|AFF F2A|
B2c dBB|fBg fga|bag agf|(g3g2) a|
bgb afa|g=eg f3|BAB dcB|AFF F2D|
GFG BAB|cBc d3|Bcd cAF|(G6|G3)||
